static/img/kroki/b946fed6fb83cb8b12d9434ac36cb787.svg

<?xml version="1.0" encoding="us-ascii" standalone="no"?><svg xmlns="http://www.w3.org/2000/svg" xmlns:xlink="http://www.w3.org/1999/xlink" contentStyleType="text/css" height="252px" preserveAspectRatio="none" style="width:205px;height:252px;" version="1.1" viewBox="0 0 205 252" width="205px" zoomAndPan="magnify"><defs/><g><!--class aws_glacier_job--><g id="elem_aws_glacier_job"><rect codeLine="22" fill="#3D176E" height="39.7891" id="aws_glacier_job" rx="2.5" ry="2.5" style="stroke:#000D19;stroke-width:0.5;" width="173" x="16" y="106.79"/><ellipse cx="31" cy="126.6845" fill="#ADD1B2" rx="11" ry="11" style="stroke:#181818;stroke-width:1.0;"/><path d="M33.9688,132.3252 Q33.3906,132.622 32.75,132.7627 Q32.1094,132.9189 31.4063,132.9189 Q28.9063,132.9189 27.5781,131.2783 Q26.2656,129.622 26.2656,126.497 Q26.2656,123.372 27.5781,121.7158 Q28.9063,120.0595 31.4063,120.0595 Q32.1094,120.0595 32.75,120.2158 Q33.4063,120.372 33.9688,120.6689 L33.9688,123.3877 Q33.3438,122.8095 32.75,122.5439 Q32.1563,122.2627 31.5313,122.2627 Q30.1875,122.2627 29.5,123.3408 Q28.8125,124.4033 28.8125,126.497 Q28.8125,128.5908 29.5,129.6689 Q30.1875,130.7314 31.5313,130.7314 Q32.1563,130.7314 32.75,130.4658 Q33.3438,130.1845 33.9688,129.6064 L33.9688,132.3252 Z " fill="#000000"/><text fill="#D9B8FF" font-family="Helvetica" font-size="17" lengthAdjust="spacing" textLength="131" x="50" y="132.5698">aws_glacier_job</text></g><!--class aws_glacier_vault--><g id="elem_aws_glacier_vault"><rect codeLine="24" fill="#3D176E" height="39.7891" id="aws_glacier_vault" rx="2.5" ry="2.5" style="stroke:#000D19;stroke-width:0.5;" width="191" x="7" y="7"/><ellipse cx="22" cy="26.8945" fill="#ADD1B2" rx="11" ry="11" style="stroke:#181818;stroke-width:1.0;"/><path d="M24.9688,32.5352 Q24.3906,32.832 23.75,32.9727 Q23.1094,33.1289 22.4063,33.1289 Q19.9063,33.1289 18.5781,31.4883 Q17.2656,29.832 17.2656,26.707 Q17.2656,23.582 18.5781,21.9258 Q19.9063,20.2695 22.4063,20.2695 Q23.1094,20.2695 23.75,20.4258 Q24.4063,20.582 24.9688,20.8789 L24.9688,23.5977 Q24.3438,23.0195 23.75,22.7539 Q23.1563,22.4727 22.5313,22.4727 Q21.1875,22.4727 20.5,23.5508 Q19.8125,24.6133 19.8125,26.707 Q19.8125,28.8008 20.5,29.8789 Q21.1875,30.9414 22.5313,30.9414 Q23.1563,30.9414 23.75,30.6758 Q24.3438,30.3945 24.9688,29.8164 L24.9688,32.5352 Z " fill="#000000"/><text fill="#D9B8FF" font-family="Helvetica" font-size="17" lengthAdjust="spacing" textLength="149" x="41" y="32.7798">aws_glacier_vault</text></g><!--class aws_kms_key--><g id="elem_aws_kms_key"><rect codeLine="26" fill="#3D176E" height="39.7891" id="aws_kms_key" rx="2.5" ry="2.5" style="stroke:#000D19;stroke-width:0.5;" width="158" x="23.5" y="206.58"/><ellipse cx="38.5" cy="226.4745" fill="#ADD1B2" rx="11" ry="11" style="stroke:#181818;stroke-width:1.0;"/><path d="M41.4688,232.1152 Q40.8906,232.412 40.25,232.5527 Q39.6094,232.7089 38.9063,232.7089 Q36.4063,232.7089 35.0781,231.0683 Q33.7656,229.412 33.7656,226.287 Q33.7656,223.162 35.0781,221.5058 Q36.4063,219.8495 38.9063,219.8495 Q39.6094,219.8495 40.25,220.0058 Q40.9063,220.162 41.4688,220.4589 L41.4688,223.1777 Q40.8438,222.5995 40.25,222.3339 Q39.6563,222.0527 39.0313,222.0527 Q37.6875,222.0527 37,223.1308 Q36.3125,224.1933 36.3125,226.287 Q36.3125,228.3808 37,229.4589 Q37.6875,230.5214 39.0313,230.5214 Q39.6563,230.5214 40.25,230.2558 Q40.8438,229.9745 41.4688,229.3964 L41.4688,232.1152 Z " fill="#000000"/><text fill="#D9B8FF" font-family="Helvetica" font-size="17" lengthAdjust="spacing" textLength="116" x="57.5" y="232.3598">aws_kms_key</text></g><!--link aws_glacier_job to aws_kms_key--><g id="link_aws_glacier_job_aws_kms_key"><path codeLine="28" d="M102.5,147.01 C102.5,162.28 102.5,183.71 102.5,200.32 " fill="none" id="aws_glacier_job-to-aws_kms_key" style="stroke:#1A83AF;stroke-width:2.0;"/><polygon fill="#1A83AF" points="102.5,205.2,106.5,196.2,102.5,200.2,98.5,196.2,102.5,205.2" style="stroke:#1A83AF;stroke-width:2.0;"/></g><!--link aws_glacier_vault to aws_glacier_job--><g id="link_aws_glacier_vault_aws_glacier_job"><path codeLine="29" d="M102.5,47.22 C102.5,62.49 102.5,83.92 102.5,100.53 " fill="none" id="aws_glacier_vault-to-aws_glacier_job" style="stroke:#1A83AF;stroke-width:2.0;"/><polygon fill="#1A83AF" points="102.5,105.41,106.5,96.41,102.5,100.41,98.5,96.41,102.5,105.41" style="stroke:#1A83AF;stroke-width:2.0;"/></g><!--SRC=[XP1BJyCm48Jl_HMMUgxK447R2rA8LC6bGfGRGjKcNZScYHsjdKO1yT_f0v1hzt7OoywdsPaj94U6TMDxLcET8Pc1AQLgWA1c2P7kKbrfOaCXGCGJNvnhPQy22wYHFMArGIjpy8dNGkQbGcFOZICzG5wkIRUA7-mjWJ9R2PLrgBG2On9hIMQjHISCdsLJ8NpIDnt6F9hSOO1fuaY_o7Wyvj7CHwwUkjZxdrZAJsIH-xI5jXZ434xigOifTuGJCYZwfv_D-0oSIxLcjyxkvP295DBHVba0rzsE5b0PzuonIAXjts0QjCBPb8l9IVZf79plFiUWCwjr1Rb4MdteZ7qDlaye6sWhwsbblHtizrlVPVGsZ99fdCpVH_SkF0XD0zJn-G40]--></g></svg>

<svg xmlns="http://www.w3.org/2000/svg" width="205" height="252" preserveAspectRatio="none" style="width:205px;height:252px"><rect width="173" height="39.789" x="16" y="106.79" fill="#3D176E" rx="2.5" ry="2.5" style="stroke:#000d19;stroke-width:.5"/><circle cx="31" cy="126.684" r="11" fill="#ADD1B2" style="stroke:#181818;stroke-width:1"/><path d="M33.969 132.325q-.578.297-1.219.438-.64.156-1.344.156-2.5 0-3.828-1.64-1.312-1.657-1.312-4.782t1.312-4.781q1.328-1.656 3.828-1.656.703 0 1.344.156.656.156 1.219.453v2.719q-.625-.579-1.219-.844-.594-.281-1.219-.281-1.343 0-2.031 1.078-.688 1.062-.688 3.156 0 2.094.688 3.172.688 1.062 2.031 1.062.625 0 1.219-.265.594-.281 1.219-.86v2.72Z"/><text x="50" y="132.57" fill="#D9B8FF" font-family="Helvetica" font-size="17" textLength="131">aws_glacier_job</text><rect width="191" height="39.789" x="7" y="7" fill="#3D176E" rx="2.5" ry="2.5" style="stroke:#000d19;stroke-width:.5"/><circle cx="22" cy="26.895" r="11" fill="#ADD1B2" style="stroke:#181818;stroke-width:1"/><path d="M24.969 32.535q-.578.297-1.219.438-.64.156-1.344.156-2.5 0-3.828-1.64-1.312-1.657-1.312-4.782t1.312-4.781q1.328-1.656 3.828-1.656.703 0 1.344.156.656.156 1.219.453v2.719q-.625-.578-1.219-.844-.594-.281-1.219-.281-1.343 0-2.031 1.078-.688 1.062-.688 3.156 0 2.094.688 3.172.688 1.062 2.031 1.062.625 0 1.219-.265.594-.281 1.219-.86v2.72Z"/><text x="41" y="32.78" fill="#D9B8FF" font-family="Helvetica" font-size="17" textLength="149">aws_glacier_vault</text><rect width="158" height="39.789" x="23.5" y="206.58" fill="#3D176E" rx="2.5" ry="2.5" style="stroke:#000d19;stroke-width:.5"/><circle cx="38.5" cy="226.475" r="11" fill="#ADD1B2" style="stroke:#181818;stroke-width:1"/><path d="M41.469 232.115q-.578.297-1.219.438-.64.156-1.344.156-2.5 0-3.828-1.64-1.312-1.657-1.312-4.782t1.312-4.781q1.328-1.656 3.828-1.656.703 0 1.344.156.656.156 1.219.453v2.719q-.625-.578-1.219-.844-.594-.281-1.219-.281-1.343 0-2.031 1.078-.688 1.062-.688 3.156 0 2.094.688 3.172.688 1.062 2.031 1.062.625 0 1.219-.265.594-.281 1.219-.86v2.72Z"/><text x="57.5" y="232.36" fill="#D9B8FF" font-family="Helvetica" font-size="17" textLength="116">aws_kms_key</text><path fill="none" d="M102.5 147.01v53.31" style="stroke:#1a83af;stroke-width:2"/><path fill="#1A83AF" d="m102.5 205.2 4-9-4 4-4-4 4 9z" style="stroke:#1a83af;stroke-width:2"/><path fill="none" d="M102.5 47.22v53.31" style="stroke:#1a83af;stroke-width:2"/><path fill="#1A83AF" d="m102.5 105.41 4-9-4 4-4-4 4 9z" style="stroke:#1a83af;stroke-width:2"/></svg>
